X:1
T: George Gordon
L: 1/8
M: C
R: Strathspey
B: Walker Collection
A:  scots-l 2000-03-18
N: GEORGE GORDON. Scottish, Strathspey. G Minor. Standard. AAB. Composed by
N: Alexander Walker in honor of the "late" (in 1866) George Gordon of Bucharn,
N: Aberdeenshire. Walker (A Collection of Strathspeys, Reels, Marches, &c.),
N: 1866; No. 191, pg. 66.
K: G Minor
F \
| D<G G>A B>cd>g | f>dc>B A<F F>A \
| D<G G>A B>c d>c | B>G (B/A/)G/^F/ G2G, :|
F \
| G<g g>f g>dB>G | F<f f>g f>dc>A \
| G<g g>f d>cB>A | (3BdB (3ABA (G2 G,)F |
G<g g>f g>dB>G | F<f f>g f>dc>A \
| G>BA>c B>dc>e | d>gf>a b<gg |]
